src/assets/minizmze-icon.svg

<!--version="1.0" encoding="utf-8"--><!-- Uploaded to: SVG Repo, www.svgrepo.com, Generator: SVG Repo
Mixer Tools --><svg width="100%" height="100%" viewBox="0 0 24 24" fill="none" xmlns="http://www.w3.org/2000/svg"><path d="m14 10 6-6m-6 6h4.5M14 10V5.5M4 4l6 6m0 0V5.5m0 4.5H5.5m8.5 4 6 6m-6-6v4.5m0-4.5h4.5M10 14l-6 6m6-6H5.5m4.5 0v4.5" stroke="#ffffff" stroke-width="2" stroke-linecap="round" stroke-linejoin="round"/></svg>

<?xml version="1.0" encoding="utf-8"?><!-- Uploaded to: SVG Repo, www.svgrepo.com, Generator: SVG Repo
Mixer Tools -->
<svg width="100%" height="100%" viewBox="0 0 24 24" fill="none" xmlns="http://www.w3.org/2000/svg">
    <path
        d="M14 10L20 4M14 10H18.5M14 10V5.5M4 4L10 10M10 10V5.5M10 10H5.5M14 14L20 20M14 14V18.5M14 14H18.5M10 14L4 20M10 14H5.5M10 14V18.5"
        stroke="#ffffff" stroke-width="2" stroke-linecap="round" stroke-linejoin="round" />
</svg>
